!!!OTL: ABEND SINKT STILL AUF DIE FLUR
!!!ARE: Europa, Mitteleuropa, Deutschland
!!!SCT: F0288
!!!YEM: Copyright 1995, estate of Helmut Schaffrath.
**kern
*ICvox
*Ivox
*M3/8
*k[b-]
*F:
=1
{8.a
16b-
8a
=2
8.g
16a
8g
=3
4f
8r}
=4
{8g
8g
8g
=5
8.a
16a
8cc
=6
4cc
8b-
=7
4g
8r}
=8
{8a
8a
8bn
=9
8cc
8cc
8dd
=10
4ee
8dd
=11
4cc
8r}
=12
{8ff
8cc
8a
=13
8cc
8b-
8g
=14
4f
8r}
==
!!!AGN: Jugend - Lied, religioes, Tageszeiten, Abend
!!!ONB: ESAC (Essen Associative Code) Database: FINK
!!!AMT: simple triple
!!!AIN: vox
!!!EED: Helmut Schaffrath
!!!EEV: 1.0
*-
